icons/op-file-sheet-24.svg

<svg width="24" height="24" viewBox="0 0 24 24" fill="none" xmlns="http://www.w3.org/2000/svg">
<path d="M8.1145 16.5H15.7939V17.4688H8.1145V16.5ZM8.14504 14H14.8244V15H8.14504V14ZM8.14504 11.5H14.8244V12.5H8.14504V11.5ZM18 7.6875L14.3969 4H6V20H18V7.6875ZM7.40458 18.5625V5.4375H13.8168L16.5954 8.3125V18.5625H7.40458Z" fill="black"/>
<path d="M9.17696 11.5H8.1145V17.4688H9.17696V11.5Z" fill="black"/>
<path d="M15.7939 11.5H14.7314V17.4688H15.7939V11.5Z" fill="black"/>
<path d="M12.5 11.5H11.4375V17.4688H12.5V11.5Z" fill="black"/>
</svg>

<svg xmlns="http://www.w3.org/2000/svg" width="24" height="24" viewBox="0 0 24 24"><path d="M8.114 16.5h7.68v.969h-7.68V16.5Zm.031-2.5h6.679v1H8.145v-1Zm0-2.5h6.679v1H8.145v-1ZM18 7.688 14.397 4H6v16h12V7.688ZM7.405 18.562V5.438h6.412l2.778 2.874v10.25h-9.19Z"/><path d="M9.177 11.5H8.114v5.969h1.063V11.5Zm6.617 0h-1.063v5.969h1.063V11.5Zm-3.294 0h-1.062v5.969H12.5V11.5Z"/></svg>
